X:38
T:Hanny's Jig
C:Bob McQuillen 2004
M:6/8
L:1/8
K:D
B|"D"Adf afd|"A7"c2d edB|"D"Adf afa|"G"gfg "A7"ecA|
"D"d2f afd|"A7"c2d efg|"D"afd "A7"cBc|edd "D"d2:|
e|"Bm"f2d dcB|ABd "A"cde|"Bm"f2d dcd|Bed "A"cde|
"Bm"dfd "A"edc|"G"Bcd "F#m"A2F|"G"GBG "D"FAd|"A"cBc "D" d2:|
